X: 1
T:Om kvelden
C:anon.
O:Norway
Z:Transcribed by Frank Nordberg - http://www.musicaviva.com
M:C
L:1/8
Q:1/4=80
K:Am
z E|"Am"E>D C>D  E2 G>"D"^F|"E"EE ^G>AB3B|"Am"c2 c>B "Dm"A2B>A|
"E"(^GA)"Am"A4 :: z B|"G"BB "Am"c>d "Em"B2 "C"G>B|"Am"BA "F"A^G "E"G<E- E=F|
"Am"E>D "F"C>D "C"E2 "G"G>"D"^F|"E"E2 ^G>A B3B|"Am"c2 "F"c>B "Dm"AA "Dm6"B>A|"E"^GA "Am"A4|]
